!!! OTL: Berkowitz68
!!! Chapter: 1
!!! Section: I
!!! Page: 18
!!! Mode: 
!!! Encoder: DJB
**kern
*staff1
*I"Piano
=1-
*clefF4
*k[b-e-a-]
*E-:
*M2/4
8E-/L
8BB-/J
8E-\L
8G\J
=2
16B-\LL
16A-\
16G\
16F\JJ
4E-\
=3
8E-/L
8BB-/J
8E-\L
8G\J
=4
8F\L
16G\L
16A-\JJ
4B-\
=5
8E-/L
8BB-/J
8E-\L
8G\J
=6
16A-\LL
16G\
16A-\
16B-\JJ
16c\LL
16B-\
16c\
16d\JJ
=7
8e-\L
16d\L
16c\JJ
8B-\L
8A-\J
=8
4G\
4F\
=9
!!linebreak:original
8e-\L
16d\L
16c\JJ
8B-\L
8A-\J
=10
8G\L
8F\J
4E-\
==
*-
